src/resources/disciplines/mathematics.svg

<svg width="170" height="121" viewBox="0 0 170 121" fill="none" xmlns="http://www.w3.org/2000/svg">
<path opacity="0.8" d="M76.9308 1.68229C59.5057 4.82433 42.1249 16.961 31.6423 31.3685C22.6172 43.7735 19.749 58.6954 21.4777 72.2316C23.4746 87.939 31.4016 102.573 44.1191 111.643C47.4631 114.03 50.6549 116.397 54.5272 118.112C70.4116 125.157 85.7816 110.226 94.862 110.113C102.507 110.016 106.08 117.963 113.097 119.465C132.041 123.519 153.734 97.1328 154.099 77.5753C154.505 54.8038 120.092 -6.1009 76.9308 1.68229Z" fill="#FFF5E3"/>
<path d="M82.5355 109.497C95.4714 107.397 104.256 95.208 102.156 82.2721C100.056 69.3361 87.8674 60.5517 74.9314 62.6515C61.9955 64.7513 53.211 76.9402 55.3108 89.8761C57.4106 102.812 69.5995 111.596 82.5355 109.497Z" stroke="#001550" stroke-miterlimit="10"/>
<path d="M87.6906 95.0302C92.6382 90.0826 92.6382 82.061 87.6906 77.1134C82.743 72.1658 74.7214 72.1658 69.7738 77.1134C64.8262 82.061 64.8262 90.0826 69.7738 95.0302C74.7214 99.9777 82.743 99.9777 87.6906 95.0302Z" stroke="#001550" stroke-miterlimit="10"/>
<path d="M51.1262 67.3717C47.1728 73.2085 45.1711 80.1481 45.4086 87.1937C45.646 94.2394 48.1104 101.028 52.4478 106.586C56.7851 112.143 62.7723 116.183 69.5492 118.125C76.3261 120.067 83.5441 119.811 90.1664 117.393C96.7887 114.976 102.475 110.522 106.407 104.672C110.34 98.8209 112.317 91.8743 112.055 84.8295C111.792 77.7848 109.304 71.0044 104.947 65.4624C100.59 59.9204 94.5884 55.9019 87.8046 53.9841" stroke="#001550" stroke-miterlimit="10"/>
<path d="M81.4988 37.4315C81.4988 37.4315 82.711 36.5993 82.9607 35.5562C83.2104 34.5132 80.2921 34.2108 79.7816 34.0444C79.2712 33.8779 78.5943 34.5021 78.4584 35.2123C78.3225 35.9224 78.1255 36.5161 78.353 36.6825C78.5805 36.8489 80.7331 37.4648 81.4988 37.4315Z" fill="white" stroke="#001550" stroke-miterlimit="10"/>
<path d="M77.1162 39.0043C77.1162 39.0043 80.6642 40.8268 81.8737 39.7172C83.0832 38.6076 81.8931 37.6506 81.0692 37.0042C80.3727 36.4917 79.6414 36.0282 78.8805 35.6172L77.1162 39.0043Z" fill="white" stroke="#001550" stroke-miterlimit="10"/>
<mask id="path-7-inside-1_1645_183050" fill="white">
<path d="M78.4961 84.4432L78.7402 86.0715L78.865 84.396L78.4961 84.4432Z"/>
</mask>
<path d="M78.4961 84.4432L78.7402 86.0715L78.865 84.396L78.4961 84.4432Z" fill="#001550"/>
<path d="M78.4961 84.4432L78.3693 83.4512L77.3556 83.5808L77.5071 84.5914L78.4961 84.4432ZM78.7402 86.0715L77.7513 86.2198L79.7374 86.1458L78.7402 86.0715ZM78.865 84.396L79.8623 84.4703L79.9533 83.2488L78.7383 83.4041L78.865 84.396ZM77.5071 84.5914L77.7513 86.2198L79.7292 85.9233L79.485 84.2949L77.5071 84.5914ZM79.7374 86.1458L79.8623 84.4703L77.8678 84.3217L77.743 85.9972L79.7374 86.1458ZM78.7383 83.4041L78.3693 83.4512L78.6229 85.4351L78.9918 85.3879L78.7383 83.4041Z" fill="#001550" mask="url(#path-7-inside-1_1645_183050)"/>
<path d="M79.3886 67.9849C79.7214 71.3874 79.7326 74.8137 79.4219 78.2183L78.8505 84.4988C78.8318 84.5348 78.8021 84.5638 78.7657 84.5816C78.7292 84.5994 78.688 84.6049 78.6482 84.5975C78.6083 84.59 78.572 84.5699 78.5444 84.5401C78.5169 84.5103 78.4997 84.4725 78.4954 84.4322L75.2803 51.2102L77.7519 50.9689L79.3886 67.9849Z" fill="#001550" stroke="#001550" stroke-miterlimit="10"/>
<path d="M54.4014 67.3775L56.0575 69.089L74.3468 50.8025L72.6879 49.0909L54.4014 67.3775Z" fill="#001550" stroke="#001550" stroke-miterlimit="10"/>
<path d="M55.0567 61.7637L54.0527 60.7356L53.2668 61.5031L54.2707 62.5312L55.0567 61.7637Z" fill="#10B981" stroke="#001550" stroke-miterlimit="10"/>
<path d="M54.6845 60.5948L53.917 59.8088L52.3451 61.3438L53.1126 62.1298L54.6845 60.5948Z" fill="#10B981" stroke="#001550" stroke-miterlimit="10"/>
<path d="M54.8394 66.8114L49.4189 70.3317L53.0696 64.9972L63.4695 54.8414L65.2421 56.6557L54.8394 66.8114Z" fill="#10B981" stroke="#001550" stroke-miterlimit="10"/>
<path d="M54.8394 66.8115L53.0696 64.9973L49.4189 70.3318L54.8394 66.8115Z" fill="white" stroke="#001550" stroke-miterlimit="10"/>
<path d="M51.0806 69.2527L50.5397 68.6979L49.4189 70.3318L51.0806 69.2527Z" fill="#001550" stroke="#001550" stroke-miterlimit="10"/>
<path d="M55.8411 61.5822C55.5992 61.4174 55.3077 61.3413 55.0161 61.3669C54.7245 61.3926 54.4508 61.5183 54.2414 61.7228C54.0319 61.9273 53.8997 62.198 53.8672 62.489C53.8347 62.7799 53.9039 63.0731 54.063 63.3188L56.3044 66.8002L59.2671 63.9069L55.8411 61.5822ZM56.554 65.5436L54.8203 63.1856C54.5678 62.8417 54.5429 62.4478 54.7509 62.2425C54.959 62.0372 55.3557 62.076 55.6913 62.3368L58.0077 64.126L56.554 65.5436Z" fill="white" stroke="#001550" stroke-miterlimit="10"/>
<path d="M77.7754 47.1684L75.043 46.2724L77.817 39.8671C77.8956 39.6873 78.0382 39.5432 78.2171 39.4627C78.396 39.3822 78.5985 39.3711 78.7852 39.4316C78.9722 39.493 79.1297 39.622 79.2266 39.7934C79.3236 39.9647 79.3531 40.1661 79.3095 40.3581L77.7754 47.1684Z" fill="#10B981" stroke="#001550" stroke-miterlimit="10"/>
<path d="M73.9757 45.2183H74.8079C76.1033 45.2247 77.3602 45.6587 78.3837 46.4527L79.0578 46.9742L78.2255 49.5264C77.89 50.5531 77.3958 51.5209 76.7609 52.3947L76.0618 53.3573L75.7594 54.4669H75.5569C74.5325 54.466 73.5352 54.1375 72.7107 53.5293L72.3418 53.2519L72.7302 52.0674L72.7912 50.6804C72.8233 49.9554 72.9311 49.2358 73.113 48.5333L73.9757 45.2183Z" fill="#10B981" stroke="#001550" stroke-miterlimit="10"/>
<path d="M75.6699 47.7399C75.6236 47.8794 75.5371 48.002 75.4213 48.0923C75.3054 48.1827 75.1653 48.2366 75.0188 48.2474C74.8723 48.2583 74.7258 48.2254 74.598 48.153C74.4701 48.0807 74.3665 47.972 74.3004 47.8408C74.2342 47.7097 74.2084 47.5618 74.2262 47.416C74.244 47.2701 74.3046 47.1328 74.4004 47.0214C74.4961 46.91 74.6228 46.8294 74.7643 46.7899C74.9058 46.7504 75.0559 46.7538 75.1955 46.7995C75.2887 46.8296 75.375 46.8779 75.4494 46.9416C75.5238 47.0054 75.5848 47.0832 75.629 47.1707C75.6731 47.2581 75.6994 47.3535 75.7064 47.4512C75.7135 47.5489 75.701 47.647 75.6699 47.7399Z" fill="#001550" stroke="#001550" stroke-miterlimit="10"/>
<path d="M77.8405 48.45C77.7947 48.5904 77.7083 48.714 77.5923 48.8053C77.4762 48.8966 77.3357 48.9514 77.1885 48.9627C77.0413 48.9741 76.8941 48.9416 76.7654 48.8693C76.6367 48.7969 76.5323 48.688 76.4655 48.5564C76.3987 48.4247 76.3725 48.2762 76.3901 48.1296C76.4077 47.9831 76.4685 47.845 76.5646 47.7329C76.6607 47.6209 76.7879 47.5398 76.9301 47.5001C77.0722 47.4603 77.223 47.4637 77.3633 47.5096C77.4566 47.5398 77.5429 47.5881 77.6174 47.6518C77.6919 47.7154 77.7531 47.7932 77.7975 47.8806C77.8418 47.968 77.8684 48.0633 77.8758 48.161C77.8832 48.2587 77.8712 48.357 77.8405 48.45Z" fill="#001550" stroke="#001550" stroke-miterlimit="10"/>
<path d="M121.383 11.9769C121.383 11.9769 116.817 15.2836 113.083 15.7552C109.349 16.2268 96.5581 16.7483 91.6397 17.9744C86.7213 19.2005 77.5975 22.8873 74.2964 25.1869C70.9953 27.4866 71.231 28.7932 71.5001 31.7115C71.7692 34.6298 73.7693 37.7284 73.7693 37.7284C73.7693 37.7284 71.98 42.325 72.5792 43.0851C73.1784 43.8452 75.2395 43.2987 76.535 41.6481C77.8305 39.9976 79.9915 34.5799 82.3994 31.7919C84.8072 29.004 88.014 28.4631 89.4011 28.2467C90.7881 28.0303 93.2542 29.1316 93.3235 31.509C93.3747 32.5651 93.1351 33.615 92.6308 34.5444C92.1265 35.4737 91.3768 36.2469 90.4635 36.7797C88.7131 37.8088 80.9125 39.7729 79.3673 41.6204C77.8222 43.4679 80.771 45.0935 82.9209 44.8577C85.0708 44.6219 86.8045 43.393 89.9559 42.0837C93.2875 40.7288 96.8033 39.8807 100.386 39.5676C103.668 39.3235 111.083 38.8325 114.434 35.5036C117.785 32.1748 120.678 28.2245 123.416 26.7681C126.154 25.3118 129.627 23.9053 129.627 23.9053L121.383 11.9769Z" fill="white" stroke="#001550" stroke-miterlimit="10"/>
<path d="M122.954 26.4551C122.159 26.9139 121.364 27.5608 120.57 28.3031L117.464 17.7677L122.954 26.4551Z" fill="#001550" stroke="#001550"/>
<path d="M82.2655 21.5778C82.2655 21.5778 74.5703 27.5336 73.702 29.6031C72.8338 31.6725 73.7742 37.7255 73.7742 37.7255C73.7742 37.7255 77.3804 29.5837 79.1253 27.4227C80.8702 25.2617 85.7469 21.5972 85.7469 21.5972" stroke="#001550" stroke-miterlimit="10"/>
<path d="M115.62 14.8813L124.095 31.5894L131.263 27.8334L124.098 10.6038L115.62 14.8813Z" fill="white" stroke="#001550" stroke-miterlimit="10"/>
<path d="M126.155 28.0108C126.102 28.1658 126.005 28.3017 125.875 28.4016C125.745 28.5015 125.589 28.5609 125.426 28.5724C125.262 28.5839 125.099 28.5469 124.957 28.4661C124.814 28.3854 124.699 28.2644 124.625 28.1183C124.551 27.9722 124.522 27.8076 124.541 27.6449C124.56 27.4823 124.627 27.329 124.733 27.2041C124.838 27.0792 124.979 26.9883 125.136 26.9428C125.293 26.8973 125.461 26.8992 125.617 26.9483C125.723 26.9816 125.821 27.0357 125.906 27.1075C125.99 27.1792 126.06 27.2672 126.11 27.3662C126.16 27.4652 126.19 27.5732 126.198 27.6839C126.205 27.7946 126.191 27.9058 126.155 28.0108Z" fill="white" stroke="#001550" stroke-miterlimit="10"/>
<path d="M146.573 22.8512C146.573 22.8512 135.046 28.6767 134.173 29.3452C133.763 29.6502 133.27 29.8232 132.76 29.841C132.249 29.8588 131.745 29.7207 131.315 29.4451C130.533 28.9124 121.806 10.7092 121.806 10.7092C121.806 10.7092 121.529 9.58012 121.806 8.72849C122.083 7.87686 133.277 1 133.277 1" fill="white"/>
<path d="M146.573 22.8512C146.573 22.8512 135.046 28.6767 134.173 29.3452C133.763 29.6502 133.27 29.8232 132.76 29.841C132.249 29.8588 131.745 29.7207 131.315 29.4451C130.533 28.9124 121.806 10.7092 121.806 10.7092C121.806 10.7092 121.529 9.58012 121.806 8.72849C122.083 7.87686 133.277 1 133.277 1" stroke="#001550" stroke-miterlimit="10"/>
</svg>

<svg width="170" height="121" viewBox="0 0 170 121" fill="none" xmlns="http://www.w3.org/2000/svg"><path opacity=".8" d="M76.93 1.682C59.507 4.824 42.126 16.961 31.643 31.37 22.617 43.773 19.75 58.695 21.478 72.232c1.997 15.707 9.924 30.341 22.641 39.411 3.344 2.387 6.536 4.754 10.408 6.469 15.885 7.045 31.255-7.886 40.335-7.999 7.645-.097 11.218 7.85 18.235 9.352 18.944 4.054 40.637-22.332 41.002-41.89.406-22.771-34.007-83.676-77.168-75.893Z" fill="#FFF5E3"/><path d="M82.535 109.497c12.936-2.1 21.721-14.289 19.621-27.225-2.1-12.936-14.289-21.72-27.225-19.62-12.935 2.1-21.72 14.288-19.62 27.224 2.1 12.936 14.289 21.72 27.224 19.621Z" stroke="#001550" stroke-miterlimit="10"/><path d="M87.69 95.03c4.948-4.947 4.948-12.969 0-17.917-4.947-4.947-12.969-4.947-17.916 0-4.948 4.948-4.948 12.97 0 17.917 4.947 4.948 12.969 4.948 17.917 0Z" stroke="#001550" stroke-miterlimit="10"/><path d="M51.126 67.372a33.343 33.343 0 1 0 36.679-13.388" stroke="#001550" stroke-miterlimit="10"/><path d="M81.499 37.431s1.212-.832 1.462-1.875c.25-1.043-2.669-1.345-3.18-1.512-.51-.166-1.187.458-1.323 1.168-.135.71-.332 1.304-.105 1.47.228.167 2.38.783 3.146.75Z" fill="#fff" stroke="#001550" stroke-miterlimit="10"/><path d="M77.116 39.004s3.548 1.823 4.758.713c1.21-1.11.02-2.066-.805-2.713a18.641 18.641 0 0 0-2.189-1.387l-1.764 3.387Z" fill="#fff" stroke="#001550" stroke-miterlimit="10"/><mask id="a" fill="#fff"><path d="m78.496 84.443.244 1.629.125-1.676-.369.047Z"/></mask><path d="m78.496 84.443.244 1.629.125-1.676-.369.047Z" fill="#001550"/><path d="m78.496 84.443-.127-.992-1.013.13.151 1.01.99-.148Zm.244 1.629-.989.148 1.986-.074-.997-.075Zm.125-1.676.997.074.091-1.221-1.215.155.127.992Zm-1.358.195.244 1.629 1.978-.297-.244-1.628-1.978.296Zm2.23 1.555.125-1.676-1.994-.148-.125 1.675 1.994.149Zm-.999-2.742-.369.047.254 1.984.369-.047-.254-1.984Z" fill="#001550" mask="url(#a)"/><path d="M79.389 67.985c.332 3.402.344 6.829.033 10.233l-.572 6.28a.19.19 0 0 1-.355-.066L75.28 51.21l2.472-.241 1.637 17.016ZM54.401 67.377l1.656 1.712 18.29-18.286-1.66-1.712-18.286 18.286Z" fill="#001550" stroke="#001550" stroke-miterlimit="10"/><path d="m55.057 61.764-1.004-1.028-.786.767 1.004 1.028.786-.767Z" fill="#10B981" stroke="#001550" stroke-miterlimit="10"/><path d="m54.684 60.595-.767-.786-1.572 1.535.768.786 1.572-1.535ZM54.84 66.811l-5.421 3.52 3.65-5.334 10.4-10.156 1.773 1.815L54.84 66.81Z" fill="#10B981" stroke="#001550" stroke-miterlimit="10"/><path d="m54.84 66.811-1.77-1.814-3.651 5.335 5.42-3.52Z" fill="#fff" stroke="#001550" stroke-miterlimit="10"/><path d="m51.08 69.253-.54-.555-1.121 1.634 1.662-1.08Z" fill="#001550" stroke="#001550" stroke-miterlimit="10"/><path d="M55.841 61.582a1.268 1.268 0 0 0-1.778 1.737l2.241 3.481 2.963-2.893-3.426-2.325Zm.713 3.962-1.734-2.358c-.252-.344-.277-.738-.07-.944.209-.205.606-.166.941.095l2.317 1.789-1.454 1.418Z" fill="#fff" stroke="#001550" stroke-miterlimit="10"/><path d="m77.775 47.168-2.732-.896 2.774-6.405a.79.79 0 0 1 1.41-.074.79.79 0 0 1 .082.565l-1.534 6.81Z" fill="#10B981" stroke="#001550" stroke-miterlimit="10"/><path d="M73.976 45.218h.832a5.881 5.881 0 0 1 3.576 1.235l.674.521-.833 2.552a10.347 10.347 0 0 1-1.464 2.869l-.7.962-.302 1.11h-.202a4.802 4.802 0 0 1-2.846-.938l-.37-.277.39-1.185.06-1.387a10.4 10.4 0 0 1 .322-2.147l.863-3.315Z" fill="#10B981" stroke="#001550" stroke-miterlimit="10"/><path d="M75.67 47.74a.744.744 0 1 1-1.412-.469.744.744 0 0 1 1.412.469ZM77.84 48.45a.747.747 0 1 1-1.42-.463.747.747 0 0 1 1.42.463Z" fill="#001550" stroke="#001550" stroke-miterlimit="10"/><path d="M121.383 11.977s-4.566 3.307-8.3 3.778c-3.734.472-16.525.993-21.443 2.22-4.919 1.226-14.043 4.912-17.344 7.212-3.3 2.3-3.065 3.606-2.796 6.524.27 2.919 2.27 6.017 2.27 6.017s-1.79 4.597-1.19 5.357c.598.76 2.66.214 3.955-1.437 1.296-1.65 3.457-7.068 5.864-9.856 2.408-2.788 5.615-3.329 7.002-3.545 1.387-.217 3.853.885 3.922 3.262a5.778 5.778 0 0 1-2.86 5.27c-1.75 1.03-9.55 2.994-11.096 4.841-1.545 1.848 1.404 3.474 3.554 3.238 2.15-.236 3.883-1.465 7.035-2.774a36.008 36.008 0 0 1 10.43-2.516c3.282-.244 10.697-.735 14.048-4.064 3.351-3.33 6.244-7.28 8.982-8.736 2.738-1.456 6.211-2.863 6.211-2.863l-8.244-11.928Z" fill="#fff" stroke="#001550" stroke-miterlimit="10"/><path d="M122.954 26.455c-.795.459-1.59 1.106-2.384 1.848l-3.106-10.535 5.49 8.687Z" fill="#001550" stroke="#001550"/><path d="M82.266 21.578s-7.696 5.956-8.564 8.025c-.868 2.07.072 8.122.072 8.122s3.606-8.141 5.351-10.302c1.745-2.161 6.622-5.826 6.622-5.826" stroke="#001550" stroke-miterlimit="10"/><path d="m115.62 14.881 8.475 16.708 7.168-3.756-7.165-17.23-8.478 4.278Z" fill="#fff" stroke="#001550" stroke-miterlimit="10"/><path d="M126.155 28.01a.831.831 0 1 1-1.574-.536.831.831 0 0 1 1.574.537Z" fill="#fff" stroke="#001550" stroke-miterlimit="10"/><path d="M146.573 22.851s-11.527 5.826-12.4 6.494a2.515 2.515 0 0 1-2.858.1c-.782-.533-9.509-18.736-9.509-18.736s-.277-1.129 0-1.98C122.083 7.876 133.277 1 133.277 1" fill="#fff"/><path d="M146.573 22.851s-11.527 5.826-12.4 6.494a2.515 2.515 0 0 1-2.858.1c-.782-.533-9.509-18.736-9.509-18.736s-.277-1.129 0-1.98C122.083 7.876 133.277 1 133.277 1" stroke="#001550" stroke-miterlimit="10"/></svg>
